packages/icons/src/headphone.svg

<svg width="24" height="24" viewBox="0 0 24 24" fill="none" xmlns="http://www.w3.org/2000/svg">
<path fill-rule="evenodd" clip-rule="evenodd" d="M12 2C16.3349 2 19.8645 5.44784 19.9962 9.75082L20.0012 10.1714C20.4206 10.3198 20.8033 10.5606 21.1213 10.8787C21.5654 11.3227 21.8605 11.8947 21.9636 12.5512L21.9908 12.7731L22 13V15C22 15.8056 21.6796 16.563 21.1213 17.1213C20.6773 17.5654 20.1053 17.8605 19.4488 17.9636L19.2269 17.9908L19 18L17.8738 18.0006C17.4455 19.6636 15.9747 20.9079 14.1996 20.9951L14 21H13.333L13 21.5H11.5C10.6716 21.5 10 20.8284 10 20C10 19.1716 10.6716 18.5 11.5 18.5H13L13.333 19H14C15.0544 19 15.9182 18.1841 15.9945 17.1493L16 17V10H18C18 6.68629 15.3137 4 12 4C8.7616 4 6.12243 6.56557 6.00414 9.77506L6 10H8V18H5C4.1944 18 3.43701 17.6797 2.87868 17.1213C2.43464 16.6773 2.13954 16.1053 2.03639 15.4488L2.00918 15.2269L2 15V13C2 12.1944 2.32035 11.437 2.87868 10.8787C3.19327 10.5641 3.57207 10.3243 3.99965 10.1745L4 10C4 5.58172 7.58172 2 12 2ZM19 12H18V16.001H18.9551L19.0922 15.9959C19.3262 15.9748 19.542 15.8722 19.7071 15.7071C19.8629 15.5513 19.9624 15.3514 19.9913 15.133L20 15L20.001 13.0449L19.9959 12.9078C19.9748 12.6738 19.8722 12.458 19.7071 12.2929C19.5513 12.1371 19.3514 12.0376 19.133 12.0087L19 12ZM6 11.999H5.04485L4.90782 12.0041C4.67378 12.0252 4.45801 12.1278 4.29289 12.2929C4.13708 12.4487 4.03756 12.6486 4.00871 12.867L4 13L3.99899 14.9551L4.00413 15.0922C4.02524 15.3262 4.12777 15.542 4.29289 15.7071C4.44871 15.8629 4.64858 15.9624 4.86696 15.9913L5 16H6V11.999Z" fill="black"/>
</svg>

<svg xmlns="http://www.w3.org/2000/svg" width="24" height="24" fill="none" viewBox="0 0 24 24">
  <path fill="#000" fill-rule="evenodd" d="M12 2a8 8 0 0 1 7.996 7.75l.005.421a2.997 2.997 0 0 1 1.963 2.38l.027.222L22 13v2a2.993 2.993 0 0 1-2.551 2.964l-.222.027L19 18h-1.126a4.002 4.002 0 0 1-3.674 2.995L14 21h-.667l-.333.5h-1.5a1.5 1.5 0 0 1 0-3H13l.333.5H14a2 2 0 0 0 1.995-1.85L16 17v-7h2a6 6 0 0 0-11.996-.225L6 10h2v8H5a2.993 2.993 0 0 1-2.964-2.551l-.027-.222L2 15v-2a2.993 2.993 0 0 1 2-2.825V10a8 8 0 0 1 8-8Zm7 10h-1v4.001h.955l.137-.005a.994.994 0 0 0 .615-.289.993.993 0 0 0 .284-.574L20 15l.001-1.955-.005-.137a.994.994 0 0 0-.289-.615.993.993 0 0 0-.574-.284L19 12Zm-13-.001h-.955l-.137.005a.994.994 0 0 0-.615.289.993.993 0 0 0-.284.574L4 13l-.001 1.955.005.137c.021.234.124.45.289.615a.993.993 0 0 0 .574.284L5 16h1v-4.001Z" clip-rule="evenodd"/>
</svg>
